vsl-react/vessel-home/src/assets/svgs/boat_logo.svg

<?xml version="1.0" encoding="UTF-8" standalone="no"?>
<svg
   width="1075"
   height="270"
   overflow="hidden"
   version="1.1"
   id="svg49"
   sodipodi:docname="boat_logo.svg"
   inkscape:version="1.1.2 (0a00cf5339, 2022-02-04)"
   inkscape:export-filename="/home/grady/Documents/work/Vessel/dApp/vsl-main/vsl-react/vessel-home/src/assets/svgs/boat_logo.png"
   inkscape:export-xdpi="107"
   inkscape:export-ydpi="107"
   xmlns:inkscape="http://www.inkscape.org/namespaces/inkscape"
   xmlns:sodipodi="http://sodipodi.sourceforge.net/DTD/sodipodi-0.dtd"
   xmlns="http://www.w3.org/2000/svg"
   xmlns:svg="http://www.w3.org/2000/svg">
  <sodipodi:namedview
     id="namedview51"
     pagecolor="#ffffff"
     bordercolor="#666666"
     borderopacity="1.0"
     inkscape:pageshadow="2"
     inkscape:pageopacity="0.0"
     inkscape:pagecheckerboard="0"
     showgrid="true"
     inkscape:zoom="0.39085714"
     inkscape:cx="1097.5877"
     inkscape:cy="294.22515"
     inkscape:window-width="1920"
     inkscape:window-height="1010"
     inkscape:window-x="0"
     inkscape:window-y="0"
     inkscape:window-maximized="1"
     inkscape:current-layer="svg49">
    <inkscape:grid
       type="xygrid"
       id="grid44584" />
  </sodipodi:namedview>
  <defs
     id="defs17">
    <clipPath
       id="clip0">
      <rect
         x="148"
         y="131"
         width="875"
         height="270"
         id="rect2" />
    </clipPath>
    <clipPath
       id="clip1">
      <rect
         x="898"
         y="164"
         width="124"
         height="136"
         id="rect5" />
    </clipPath>
    <clipPath
       id="clip2">
      <rect
         x="898"
         y="164"
         width="124"
         height="136"
         id="rect8" />
    </clipPath>
    <clipPath
       id="clip3">
      <rect
         x="898"
         y="164"
         width="124"
         height="136"
         id="rect11" />
    </clipPath>
    <clipPath
       id="clip4">
      <rect
         x="898"
         y="164"
         width="124"
         height="136"
         id="rect14" />
    </clipPath>
    <clipPath
       id="clip0-3">
      <rect
         x="148"
         y="131"
         width="875"
         height="270"
         id="rect2-6" />
    </clipPath>
    <clipPath
       id="clip1-7">
      <rect
         x="898"
         y="164"
         width="124"
         height="136"
         id="rect5-5" />
    </clipPath>
    <clipPath
       id="clip2-3">
      <rect
         x="898"
         y="164"
         width="124"
         height="136"
         id="rect8-5" />
    </clipPath>
    <clipPath
       id="clip3-6">
      <rect
         x="898"
         y="164"
         width="124"
         height="136"
         id="rect11-2" />
    </clipPath>
    <clipPath
       id="clip4-9">
      <rect
         x="898"
         y="164"
         width="124"
         height="136"
         id="rect14-1" />
    </clipPath>
    <clipPath
       id="clip0-2">
      <rect
         x="148"
         y="131"
         width="875"
         height="270"
         id="rect2-0" />
    </clipPath>
    <clipPath
       id="clip1-2">
      <rect
         x="898"
         y="164"
         width="124"
         height="136"
         id="rect5-3" />
    </clipPath>
    <clipPath
       id="clip2-7">
      <rect
         x="898"
         y="164"
         width="124"
         height="136"
         id="rect8-59" />
    </clipPath>
    <clipPath
       id="clip3-2">
      <rect
         x="898"
         y="164"
         width="124"
         height="136"
         id="rect11-28" />
    </clipPath>
    <clipPath
       id="clip4-97">
      <rect
         x="898"
         y="164"
         width="124"
         height="136"
         id="rect14-3" />
    </clipPath>
  </defs>
  <g
     clip-path="url(#clip0)"
     transform="translate(13.19374,-91.74574)"
     id="g47"
     style="fill:#ffffff"
     inkscape:export-filename="/home/grady/Documents/work/Vessel/dApp/vsl-main/vsl-react/vessel-home/src/assets/svgs/boat_logo.png"
     inkscape:export-xdpi="106.1"
     inkscape:export-ydpi="106.1">
    <text
       fill="#57ffdc"
       font-family="'Expletus Sans'"
       font-weight="400"
       font-size="128px"
       transform="translate(225.6,286)"
       id="text23"
       style="fill:#ffffff"><tspan
         sodipodi:role="line"
         id="tspan21017"
         x="0"
         y="0" /><tspan
         sodipodi:role="line"
         id="tspan21019"
         x="0"
         y="160"
         style="fill:#ffffff" /><tspan
         sodipodi:role="line"
         x="151.66701"
         y="0"
         id="tspan21287"
         style="fill:#ffffff"><tspan
           fill="#ffffff"
           font-size="128px"
           x="151.66701"
           y="0"
           id="tspan21289"
           style="fill:#ffffff">.<tspan
   style="font-style:normal;font-variant:normal;font-weight:normal;font-stretch:normal;font-family:'Expletus Sans';-inkscape-font-specification:'Expletus Sans'"
   id="tspan60938">finance</tspan></tspan></tspan></text>
    <g
       clip-path="url(#clip1)"
       id="g45"
       style="fill:#ffffff">
      <g
         clip-path="url(#clip2)"
         id="g43"
         style="fill:#ffffff">
        <g
           clip-path="url(#clip3)"
           id="g41"
           style="fill:#ffffff">
          <g
             clip-path="url(#clip4)"
             id="g39"
             style="fill:#ffffff">
            <path
               d="M 903,250.883 960,223 1017,250.883 995.228,296 h -70.456 z"
               stroke="#ffffff"
               stroke-width="8"
               stroke-linejoin="round"
               stroke-miterlimit="10"
               fill="#ffffff"
               fill-rule="evenodd"
               id="path25"
               style="fill:#ffffff" />
            <path
               d="m 924,230 v -4.12 L 959.5,212 995,225.88 V 230 l -35.5,-13.879 z"
               fill="#ffffff"
               fill-rule="evenodd"
               id="path27"
               style="fill:#ffffff" />
            <path
               d="m 932.729,204.255 c -0.388,0 -0.702,0.312 -0.702,0.696 v 0.991 c 0,0.384 0.314,0.695 0.702,0.695 h 53.872 c 0.388,0 0.702,-0.311 0.702,-0.695 v -0.991 c 0,-0.384 -0.314,-0.696 -0.702,-0.696 z m -0.349,-7.272 c -0.387,0 -0.701,0.311 -0.701,0.695 v 0.991 c 0,0.384 0.314,0.696 0.701,0.696 h 53.873 c 0.387,0 0.701,-0.312 0.701,-0.696 v -0.991 c 0,-0.384 -0.314,-0.695 -0.701,-0.695 z M 928.542,188 h 61.916 c 2.508,0 4.542,2.015 4.542,4.5 v 18 c 0,2.485 -2.034,4.5 -4.542,4.5 H 928.542 C 926.034,215 924,212.985 924,210.5 v -18 c 0,-2.485 2.034,-4.5 4.542,-4.5 z"
               fill="#ffffff"
               fill-rule="evenodd"
               id="path29"
               style="fill:#ffffff" />
            <path
               d="m 924,211 h 38 l -38,15 z"
               fill="#ffffff"
               fill-rule="evenodd"
               id="path31"
               style="fill:#ffffff" />
            <path
               d="M 0,36 0.813304,0 15,36 Z"
               fill="#ffffff"
               fill-rule="evenodd"
               transform="matrix(0,1,1,0,959,211)"
               id="path33"
               style="fill:#ffffff" />
            <path
               d="m 951,177.667 c 0,-1.473 1.194,-2.667 2.667,-2.667 h 11.666 c 1.473,0 2.667,1.194 2.667,2.667 v 10.666 c 0,1.473 -1.194,2.667 -2.667,2.667 H 953.667 C 952.194,191 951,189.806 951,188.333 Z"
               fill="#ffffff"
               fill-rule="evenodd"
               id="path35"
               style="fill:#ffffff" />
            <path
               d="m 951,167.335 c 0,-1.289 1.046,-2.335 2.335,-2.335 h 12.33 c 1.289,0 2.335,1.046 2.335,2.335 v 3.33 c 0,1.289 -1.046,2.335 -2.335,2.335 h -12.33 C 952.046,173 951,171.954 951,170.665 Z"
               fill="#ffffff"
               fill-rule="evenodd"
               id="path37"
               style="fill:#ffffff" />
          </g>
        </g>
      </g>
    </g>
  </g>
  <g
     clip-path="url(#clip0-2)"
     transform="translate(-182.51527,-91.84736)"
     id="g47-6"
     inkscape:export-filename="/home/grady/Documents/work/Vessel/dApp/vsl-main/vsl-react/vessel-home/src/assets/svgs/boat_logo.png"
     inkscape:export-xdpi="106.1"
     inkscape:export-ydpi="106.1">
    <text
       fill="#57ffdc"
       font-family="'Expletus Sans'"
       font-weight="400"
       font-size="128px"
       transform="translate(225.6,286)"
       id="text23-1"
       style="font-style:normal;font-variant:normal;font-weight:normal;font-stretch:normal;font-family:'Expletus Sans';-inkscape-font-specification:'Expletus Sans'"><tspan
         sodipodi:role="line"
         x="0"
         y="0"
         id="tspan21287-1">vessel</tspan></text>
  </g>
</svg>

<svg width="875" height="270" xmlns="http://www.w3.org/2000/svg" xmlns:xlink="http://www.w3.org/1999/xlink" overflow="hidden"><defs><clipPath id="clip0"><rect x="148" y="131" width="875" height="270"/></clipPath><clipPath id="clip1"><rect x="898" y="164" width="124" height="136"/></clipPath><clipPath id="clip2"><rect x="898" y="164" width="124" height="136"/></clipPath><clipPath id="clip3"><rect x="898" y="164" width="124" height="136"/></clipPath><clipPath id="clip4"><rect x="898" y="164" width="124" height="136"/></clipPath></defs><g clip-path="url(#clip0)" transform="translate(-148 -131)"><text fill="#57FFDC" font-family="Expletus Sans,Expletus Sans_MSFontService,sans-serif" font-weight="400" font-size="128" transform="translate(225.6 286)">vsl<tspan fill="#FFFFFF" font-size="128" x="151.667" y="0">.</tspan><tspan fill="#FFFFFF" font-size="128" x="190.833" y="0">finance</tspan></text><g clip-path="url(#clip1)"><g clip-path="url(#clip2)"><g clip-path="url(#clip3)"><g clip-path="url(#clip4)"><path d="M903 250.883 960 223 1017 250.883 995.228 296 924.772 296Z" stroke="#FFFFFF" stroke-width="8" stroke-linejoin="round" stroke-miterlimit="10" fill="#FFFFFF" fill-rule="evenodd"/><path d="M924 230 924 225.88 959.5 212 995 225.88 995 230 959.5 216.121Z" fill="#FFFFFF" fill-rule="evenodd"/><path d="M932.729 204.255C932.341 204.255 932.027 204.567 932.027 204.951L932.027 205.942C932.027 206.326 932.341 206.637 932.729 206.637L986.601 206.637C986.989 206.637 987.303 206.326 987.303 205.942L987.303 204.951C987.303 204.567 986.989 204.255 986.601 204.255ZM932.38 196.983C931.993 196.983 931.679 197.294 931.679 197.678L931.679 198.669C931.679 199.053 931.993 199.365 932.38 199.365L986.253 199.365C986.64 199.365 986.954 199.053 986.954 198.669L986.954 197.678C986.954 197.294 986.64 196.983 986.253 196.983ZM928.542 188 990.458 188C992.966 188 995 190.015 995 192.5L995 210.5C995 212.985 992.966 215 990.458 215L928.542 215C926.034 215 924 212.985 924 210.5L924 192.5C924 190.015 926.034 188 928.542 188Z" fill="#FFFFFF" fill-rule="evenodd"/><path d="M924 211 962 211 924 226Z" fill="#FFFFFF" fill-rule="evenodd"/><path d="M0 36 0.813304 0 15 36Z" fill="#FFFFFF" fill-rule="evenodd" transform="matrix(1.83697e-16 1 1 -1.83697e-16 959 211)"/><path d="M951 177.667C951 176.194 952.194 175 953.667 175L965.333 175C966.806 175 968 176.194 968 177.667L968 188.333C968 189.806 966.806 191 965.333 191L953.667 191C952.194 191 951 189.806 951 188.333Z" fill="#FFFFFF" fill-rule="evenodd"/><path d="M951 167.335C951 166.046 952.046 165 953.335 165L965.665 165C966.954 165 968 166.046 968 167.335L968 170.665C968 171.954 966.954 173 965.665 173L953.335 173C952.046 173 951 171.954 951 170.665Z" fill="#FFFFFF" fill-rule="evenodd"/></g></g></g></g></g></svg>
